X:1
T:Si ton amour
T:Si ton amour
T:Tielman Susato
C:Tielman Susato
%%score [ 1 [ 2 3 ] 4 ]
L:1/8
Q:1/4=120
M:2/2
K:C
V:1 treble nm="Soprano" snm="S"
V:2 treble-8 nm="Tenor 1" snm="T 1"
V:3 treble-8 nm="Tenor 2" snm="T 2"
V:4 bass nm="Bass" snm="B"
V:1
 D4 F3 G | A8- | A8 | z8 | A4 A4- | A2 B2 c4- | c4 c4- | c2 B2 c2 A2 | G2 B3 A A2- | A2 G2 E2 A2- | %10
w: Si ton a-|mour,|_||si ton|_ a- mour|_ ne|_ gist fort en|_ _ _ _||
 A2 G2 A2 GF | E2 c4 B2 | c2 A2 G2 B2- | BA A4 G2 | A8 | z8 | z2 A2 A2 B2 | c4 B2 A2 | d2 c4 BA | %19
w: * * * ton _|oeil, ne gist|fort en _ _|_ _ _ ton|oeil||pen- ser ie|puis que las|clos pour dor- *|
 G2 A2 B4 | A4 z4 | z4 z2 A2 | A2 B2 c4 | B2 A2 d2 c2- | c2 B2 A4 | G2 E2 A4 | G2 F4 ED | %27
w: |mir,|pen-|ser ie puis|que las clos pour|_ dor- *|mir, pour dor-||
 !fermata!C8 | E6 E2 | F2 F2 G4 | E2 E2 F2 A2- | AGFE F2 F2 | E4 z2 G2 | A2 c3 BGA |"^#" B2 A4 G2 | %35
w: mir.|Et que|par ce plus|nas de sou- *|* * * * * ve-|nir, de|sou- * * * *|* * ve-|
 A4 z4 | z8 | A4 B2 c2 | d4 c2 A2 | c4 B2 A2- | AGFE D2 G2- | GFED C2 F2- | F2 E3 D D2- | %43
w: nir||dung qui pour|toy vit- en|pai- * *|||* * * n'et-|
"^#" D2 C2 D4 | z8 | z4 A4 | B2 c2 d4 | c2 A2 c4 | B2 A3 GFE | D2 G3 FED | C2 F4 E2- | ED D4 C2 | %52
w: * en- deuil,-||dung-|qui- pour- toy-|vit- en pai-||||* * n'et en|
 D8 |] %53
w: deuil.|
V:2
 A4 d4 | c2 A3 GAB | c4 z2 d2 | d2 e2 f4 | f6 e2 | f2 d2 c2 e2- | edcB A2 G2 | c2 d2 e4- | %8
w: Si ton|a- mour _ _ _|_ si|ton a- mour|ne gist|fort en _ ton|_ _ _ _ oeil, ne|_ gist fort|
 e2 d2 f2 d2 | e4 z2 c2 | d2 e2 c2 d2 | e3 f g2 e2- | e2 d2 e4 | f4 e4 | c2 d2 d2 e2 | f4 e3 f | %16
w: _ en _ ton|oeil, ne|gist fot en ton|oeil, _ _ ne|_ gist fort|en ton|oeil pen- ser ie|puis que _|
 g2 f4 ed | e2 c2 d3 e | f2 e4 d2 | e2 A2 z2 e2 | f3 e/d/ c2 d2 | e4 z2 e2 | f4 e4- | e4 d2 f2- | %24
w: _ las _ _|clos pour dor- *||* mir, pour|dor- * * * *|mir, pour|dor- *||
 fe e4 d2 | e3 d c2 A2 | B2 A4 G2 | !fermata!A8 | c6 c2 | d2 d2 d4 | cBAG F3 G | AB c4 B2 | c8- | %33
w: |mir, _ _ pour|dor- * *|mir.|Et que|par ce plus|nas _ _ _ de _|_ _ sou- ve-|nir,|
 c4 e4 | f2 d2 e4 | z2 d2 c2 c2 | B2 A2 F2 A2- | A2 G2 F2 E2- | E2 D2 E4 | z2 A2 B2 c2 | %40
w: _ de|sou- ve- nir|dung qui pour|toy vit en pai-|* * * n'et|_ en deuil,|dung qui pour|
 d4 B2 G2- | G2 c3 BAG | F2 G2 _B2 B2 | A6 d2 | c2 c2 B2 A2 | F2 A4 G2 | F2 E4 D2 | E4 z2 A2 | %48
w: toy vit en|_ pai- * * *|* * n'et en|deuil, dung|qui pour toy vit|en pai- *|* n'et en|deuil, dung|
 B2 c2 d4 | B2 G4 c2- | cBAG F2 G2 | _B2 B2 A4 | A8 |] %53
w: qui pour toy|vit en pai-||* n'et en|deuil.|
V:3
 D8 | F3 G A4 | z2 A2 d3 c | B2 B2 A3 G | AB c3 B A2- | A2 G2 A2 A2 | A3 B c4 | z4 c4- | %8
w: Si|ton a- mour,|si ton _|_ a- mour, _|_ _ _ _ _|* * * si|ton a- mour|ne|
 c2 B2 c2 A2 | B4 A4 | z2 c4 B2 | c2 A2 G4 | A3 B c2 B2 | c2 d2 B4 | A4 z2 A2 | A2 B2 c4 | %16
w: _ gist fort en|ton oeil,|ne gist|fort en _|_ _ _ _|* * ton|oeil pen-|ser ie puis|
 B2 A2 d4 | c2 BA G2 A2 | B2 G2 A4 | E2 F2 E4 | z2 A2 A2 B2 | c4 B2 A2 | d4 c2 BA | G2 A2 B2 A2- | %24
w: que las clos|pour dor- * * *|* * mir,|pour dor- mir|pen- ser ie|puis que las|clos pour dor- *||
 AG/F/ G2 A4 | z2 E2 F4 | E2 C2 D4 | !fermata!E8 | A6 A2 | A2 A2 B4 | c4 A3 G | F2 G4 F2 | %32
w: * * * * mir,|pour dor-||mir.|Et que|par ce plus|nas de _|_ sou- ve-|
 G2 G2 A2 c2- | cB G2 A2 e2 | dccB/A/ B2 B2 | A4 z2 A2 | B2 c2 d2 c2 | A2 c2 B2 A2- | A2 G2 A4- | %39
w: nir, de sou- *||* * * * * * ve-|nir dung|qui pour toy vit|en pai- * n'et|_ en deuil,|
 A4 z2 A2- | A2 d3 cBA | G2 G2 AGFE | D2 E2 F2 G2 | E4 D4 | z2 A2 B2 c2 | d2 c2 A2 c2 | B2 A4 G2 | %47
w: _ en|_ pai- * * *|* n'et en _ _ _|_ _ _ _|* deuil,|dung qui pour|toy vit en pai-|* n'et en|
 A8 | z2 A4 d2- | dcBA G2 G2 | AGFE D2 E2 | F2 G2 E4 | D8 |] %53
w: deuil,|en pai-|* * * * * n'et|en _ _ _ _ _|_ _ en|deuil.|
V:4
 z8 | z2 D,2 F,3 G, | A,4 D,4 | G,4 F,2 D,2- | D,2 C,B,, A,,2 A,,2 | D,2 B,,2 A,,4 | z2 F,4 E,2 | %7
w: |Si ton a-|mour, si|ton a- mour,|_ _ _ _ si|ton a- mour|ne gist|
 F,2 D,2 C,3 D, |"^#" E,F, G,2 F,4 | E,4 A,,2 F,2- | F,2 E,2 F,2 D,2 | C,3 D, E,F, G,2 | %12
w: fort en _ _|_ _ _ _|ton oeil, ne|_ gist fort en|_ _ _ _ _|
 F,4 E,2 G,2 | F,2 D,2 E,4 | A,,2 D,2 D,2 C,2 | D,4 A,,4 | z8 | z4 z2 D,2 | D,2 E,2 F,4 | %19
w: * * ton|oeil, en ton|oeil pen- ser ie|_ puis,||pen-|ser ie puis|
 E,2 D,2 G,4 | F,6 E,D, | C,2 A,,2 E,2 A,,2 | z8 | z8 | E,4 F,4 | E,4 z4 | z2 A,,2 B,,4 | %27
w: que las clos|pour dor- *|* * * mir,|||pour dor-|mir,|pour dor-|
 !fermata!A,,8 | A,,6 A,,2 | D,2 D,2 G,,4 | C,2 C,2 D,2 F,2- | F,E, C,2 D,4 | C,8- | C,4 C,4 | %34
w: mir.|Et que|par ce plus|nas de sou- *|* * * ve-|nir,|_ de|
 D,2 F,2 E,4 | A,,2 D,2 E,2 F,2 | G,2 F,2 D,2 F,2- | F,2 E,2 D,2 C,2 | B,,4 A,,2 A,,2 | %39
w: sou- * ve-|nir dung qui pour|toy vit en pai-|* * * n'et|en deuil, dung|
 F,4 G,2 A,2 | D,2 D,2 G,3 F, | E,D,C,B,, A,,2 D,2- | D,2 C,2 _B,,2 G,,2 | A,,4 z2 D,2 | %44
w: qui pour toy|vit en pai- *||* * n'et en|deuil, dung|
 E,2 F,2 G,2 F,2 | D,2 F,4 E,2 |"^#" D,2 C,2 B,,4 | A,,2 A,,2 F,4 | G,2 A,2 D,2 D,2 | %49
w: qui pour toy vit|en pai- *|* n'et en|deuil, dung qui|pour toy vit en|
 G,3 F, E,D,C,B,, | A,,2 D,4 C,2 | _B,,2 G,,2 A,,4 | D,8 |] %53
w: pai- * * * * *||* n'et en|deuil.|

